svgs/sharp-thin/person-seat.svg

<svg xmlns="http://www.w3.org/2000/svg" viewBox="0 0 384 512"><!--! Font Awesome Pro 6.6.0 by @fontawesome - https://fontawesome.com License - https://fontawesome.com/license (Commercial License) Copyright 2024 Fonticons, Inc. --><path d="M319.7 331.5L331.8 416l20.2 0 16 0 16 0 0 16 0 32 0 16-16 0-16 0-48 0-27.8 0-3.9-27.5L260.2 368 160 368c-35.3 0-64-28.7-64-64l0-112 0-16 0-16 16 0 16 0 32 0 16 0 16 0 0 16 0 16 16 0 48 0 16 0 16 0 0 16 0 32 0 16-16 0-16 0-48 0-16 0 0 16 0 16 0 16 16 0 80 0 27.8 0 3.9 27.5zM352 432l-20.2 0-13.9 0-2-13.7-12.1-84.5-2-13.7L288 320l-96 0-16 0 0-16 0-48 0-16 16 0 64 0 16 0 0-32-16 0-64 0-16 0 0-16 0-16-16 0-32 0-16 0 0 16 0 112c0 26.5 21.5 48 48 48l100.2 0 13.9 0 2 13.7 12.1 84.5 2 13.7 13.9 0 48 0 16 0 0-32-16 0zM176 80a32 32 0 1 0 -64 0 32 32 0 1 0 64 0zM96 80a48 48 0 1 1 96 0A48 48 0 1 1 96 80zM16 136l0 280 200 0 8 0 0 16-8 0L8 432l-8 0 0-8L0 136l0-8 16 0 0 8z"/></svg>

<svg xmlns="http://www.w3.org/2000/svg" viewBox="0 0 384 512"><!--! Font Awesome Pro 6.5.2 by @fontawesome - https://fontawesome.com License - https://fontawesome.com/license (Commercial License) Copyright 2024 Fonticons, Inc. --><path d="M319.7 331.5L331.8 416H352h16 16v16 32 16H368 352 304 276.2l-3.9-27.5L260.2 368H160c-35.3 0-64-28.7-64-64V192 176 160h16 16 32 16 16v16 16h16 48 16 16v16 32 16H272 256 208 192v16 16 16h16 80 27.8l3.9 27.5zM352 432H331.8 317.9l-2-13.7-12.1-84.5-2-13.7H288 192 176V304 256 240h16 64 16V208H256 192 176V192 176H160 128 112v16V304c0 26.5 21.5 48 48 48H260.2h13.9l2 13.7 12.1 84.5 2 13.7H304h48 16V432H352zM176 80a32 32 0 1 0 -64 0 32 32 0 1 0 64 0zM96 80a48 48 0 1 1 96 0A48 48 0 1 1 96 80zM16 136V432H216h8v16h-8H8 0v-8V136v-8H16v8z"/></svg>
